package/converter/svg/thin/square-arrow-up-right.svg

<svg xmlns="http://www.w3.org/2000/svg" viewBox="0 0 448 512"><!-- Font Awesome Pro 6.0.0-alpha2 by @fontawesome - https://fontawesome.com License - https://fontawesome.com/license (Commercial License) --><path d="M130.342 338.344C127.225 341.461 127.215 346.531 130.342 349.656C133.467 352.785 138.539 352.773 141.654 349.656L304.002 187.312V328C304.002 332.422 307.582 336 312 336C316.424 336 320 332.422 320 328V168C320 163.578 316.42 160 312 160H152C147.58 160 144 163.578 144 168C144 172.418 147.58 176 152 176H292.688L130.342 338.344ZM0 96V416C0 451.348 28.652 480 64 480H384C419.348 480 448 451.348 448 416V96C448 60.656 419.348 32 384 32H64C28.652 32 0 60.656 0 96ZM16 96C16 69.531 37.531 48 64 48H384C410.469 48 432 69.531 432 96V416C432 442.469 410.469 464 384 464H64C37.531 464 16 442.469 16 416V96Z"/></svg>

<svg xmlns="http://www.w3.org/2000/svg" viewBox="0 0 448 512"><!--! Font Awesome Pro 6.6.0 by @fontawesome - https://fontawesome.com License - https://fontawesome.com/license (Commercial License) Copyright 2024 Fonticons, Inc. --><path d="M384 48c26.5 0 48 21.5 48 48l0 320c0 26.5-21.5 48-48 48L64 464c-26.5 0-48-21.5-48-48L16 96c0-26.5 21.5-48 48-48l320 0zm64 48c0-35.3-28.7-64-64-64L64 32C28.7 32 0 60.7 0 96L0 416c0 35.3 28.7 64 64 64l320 0c35.3 0 64-28.7 64-64l0-320zM168 160c-4.4 0-8 3.6-8 8s3.6 8 8 8l124.7 0L130.3 338.3c-3.1 3.1-3.1 8.2 0 11.3s8.2 3.1 11.3 0L304 187.3 304 312c0 4.4 3.6 8 8 8s8-3.6 8-8l0-144c0-4.4-3.6-8-8-8l-144 0z"/></svg>
